src/site/assets/img/signin/mhv-icon.svg

<?xml version="1.0" encoding="UTF-8"?>
<svg width="30px" height="12px" viewBox="0 0 30 12" version="1.1" xmlns="http://www.w3.org/2000/svg" xmlns:xlink="http://www.w3.org/1999/xlink">
    <!-- Generator: Sketch 46.2 (44496) - http://www.bohemiancoding.com/sketch -->
    <title>mhv-icon</title>
    <desc>Created with Sketch.</desc>
    <defs></defs>
    <g id="Round-3-mockups" stroke="none" stroke-width="1" fill="none" fill-rule="evenodd">
        <g id="mhv-icon" fill="#FFFFFF">
            <path d="M1,6.26688984 C3.26570649,5.24549044 5.5692165,5.29221653 7.91053003,6.4070681 C12.2500932,2.40131303 16.5723864,-0.17571928 20.1962037,0.00935100996 C23.8200211,0.1944213 23.6762406,1.65579988 23.6762406,1.65579988 C25.9087614,1.98468265 26.9831483,3.40939784 26.8994014,5.92994544 C24.5872819,5.47418998 22.8001852,5.91961404 21.1765123,8.49213169 C23.1209281,7.58085559 25.6883256,7.55628095 29.668496,8.55466951 C29.668496,8.55466951 29.4209969,9.32699303 28.9259987,10.8716401 C25.7314714,9.99539581 23.2785475,9.59027985 21.567227,9.6562922 C20.1962037,9.62830956 18.2945224,11.0684062 17.7983806,11.9522102 L16.9568414,11.8127363 C17.9520992,9.37421378 18.9506443,7.70945016 19.9524767,6.81844551 C21.1901974,5.39219844 23.4105388,4.31016719 25.6530593,4.67280237 C25.7018987,2.82191709 24.9275136,1.8675935 23.329904,1.8098316 C21.9656603,2.0222621 21.1765123,2.14748041 21.1765123,2.14748041 L19.2245829,1.64218122 C19.7345782,1.272599 20.2630447,1.08780789 20.8099826,1.08780789 C22.0283511,1.64953122 22.5976736,1.79205753 22.5179502,1.51538681 C21.513858,0.650178671 20.3370181,0.297111033 18.9874304,0.456183895 C15.7121528,0.842233486 11.1714944,3.53235711 6.91730717,8.49213169 C5.25974422,7.15249399 3.36377649,6.86321489 1.22940396,7.62429441 C1.22940396,7.62429441 1,6.26688984 1,6.26688984 Z" id="path"></path>
        </g>
    </g>
</svg>

<svg xmlns="http://www.w3.org/2000/svg" viewBox="0 0 30 12" width="30px" height="12px"><path d="M1 6.26689c2.2657-1.0214 4.56922-.97467 6.91053.14018C12.25009 2.4013 16.57239-.17572 20.1962.00935c3.62382.18507 3.48004 1.64645 3.48004 1.64645 2.23252.32888 3.3069 1.7536 3.22316 4.27415-2.31212-.45576-4.09921-.01034-5.72289 2.56218 1.94442-.91127 4.51182-.93585 8.49199.06254l-.7425 2.31697c-3.19453-.87624-5.64745-1.28136-7.35877-1.21535-1.37103-.02798-3.2727 1.41212-3.76885 2.29592l-.84154-.13947c.99526-2.43853 1.9938-4.10329 2.99564-4.9943 1.23772-1.42624 3.45806-2.50827 5.70058-2.14564.04884-1.85088-.72555-2.8052-2.32316-2.86297-1.36424.21243-2.15339.33765-2.15339.33765l-1.95193-.5053c.51-.36958 1.03846-.55437 1.5854-.55437 1.21837.56172 1.7877.70425 1.70797.42758C21.51385.65018 20.33702.2971 18.98743.45619c-3.27528.38604-7.81594 3.07617-12.07012 8.03594C5.25974 7.1525 3.36378 6.86321 1.2294 7.6243L1 6.2669z" fill="#FFF" fill-rule="evenodd"/></svg>
